svgs/sharp-solid/plane-prop.svg

<svg xmlns="http://www.w3.org/2000/svg" viewBox="0 0 576 512"><!--! Font Awesome Pro 6.6.0 by @fontawesome - https://fontawesome.com License - https://fontawesome.com/license (Commercial License) Copyright 2024 Fonticons, Inc. --><path d="M256 0l64 0 8 64 40 0 0-16 0-16 32 0 0 16 0 32c8.8 0 16 7.2 16 16s-7.2 16-16 16l0 32 0 16-32 0 0-16 0-16-32 0 8 64 138.3 0c34.2 0 93.7 29 93.7 64c0 36-59.5 64-93.7 64L344 320l-8 64 32 0 0-16 0-16 32 0 0 16 0 32c8.8 0 16 7.2 16 16s-7.2 16-16 16l0 32 0 16-32 0 0-16 0-16-40 0-8 64-64 0-8-64-56 0 0-64 48 0-8.3-66.4-110-11L112 384l-64 0L36 287.8c-1.3 .2-2.6 .2-4 .2c-17.7 0-32-14.3-32-32s14.3-32 32-32c1.3 0 2.7 .1 4 .2L48 128l64 0 9.7 77.4 110-11L240 128l-48 0 0-64 56 0 8-64z"/></svg>

<svg xmlns="http://www.w3.org/2000/svg" viewBox="0 0 576 512"><!--! Font Awesome Pro 6.5.2 by @fontawesome - https://fontawesome.com License - https://fontawesome.com/license (Commercial License) Copyright 2024 Fonticons, Inc. --><path d="M256 0h64l8 64h40V48 32h32V48 80c8.8 0 16 7.2 16 16s-7.2 16-16 16v32 16H368V144 128H336l8 64H482.3c34.2 0 93.7 29 93.7 64c0 36-59.5 64-93.7 64H344l-8 64h32V368 352h32v16 32c8.8 0 16 7.2 16 16s-7.2 16-16 16v32 16H368V464 448H328l-8 64H256l-8-64H192V384h48l-8.3-66.4-110-11L112 384H48L36 287.8c-1.3 .2-2.6 .2-4 .2c-17.7 0-32-14.3-32-32s14.3-32 32-32c1.3 0 2.7 .1 4 .2L48 128h64l9.7 77.4 110-11L240 128H192V64h56l8-64z"/></svg>
